svgs/sharp-solid/blender.svg

<svg xmlns="http://www.w3.org/2000/svg" viewBox="0 0 512 512"><!--! Font Awesome Pro 6.5.2 by @fontawesome - https://fontawesome.com License - https://fontawesome.com/license (Commercial License) Copyright 2024 Fonticons, Inc. --><path d="M0 0H32h96 32H512L494.5 64H336 320V96h16H485.8l-17.5 64H336 320v32h16H459.6l-17.5 64H336 320v32h16 97.5L416 352H160l-8.7-96H32 0V224 32 0zM145.5 192L133.8 64H64V192h81.5zM480 384V512H96V384H480zM288 480a32 32 0 1 0 0-64 32 32 0 1 0 0 64z"/></svg>

<svg xmlns="http://www.w3.org/2000/svg" viewBox="0 0 512 512"><!--! Font Awesome Pro 6.6.0 by @fontawesome - https://fontawesome.com License - https://fontawesome.com/license (Commercial License) Copyright 2024 Fonticons, Inc. --><path d="M0 0L32 0l96 0 32 0L512 0 494.5 64 336 64l-16 0 0 32 16 0 149.8 0-17.5 64L336 160l-16 0 0 32 16 0 123.6 0-17.5 64L336 256l-16 0 0 32 16 0 97.5 0L416 352l-256 0-8.7-96L32 256 0 256l0-32L0 32 0 0zM145.5 192L133.8 64 64 64l0 128 81.5 0zM480 384l0 128L96 512l0-128 384 0zM288 480a32 32 0 1 0 0-64 32 32 0 1 0 0 64z"/></svg>
